icons/device/video-fill.svg

<svg width="32" height="32" viewBox="0 0 32 32" fill="none" xmlns="http://www.w3.org/2000/svg">
<path fill-rule="evenodd" clip-rule="evenodd" d="M4 6.00003C2.89543 6.00003 2 6.89546 2 8.00003V24C2 25.1046 2.89543 26 4 26H21C22.1046 26 23 25.1046 23 24V19.9432L26.8377 22.6843C27.2755 22.997 27.7696 23.1028 28.2348 23.0455L28.6666 23.3334V22.943C29.4147 22.6761 30.0002 21.9748 30.0002 21.0568L30.0001 9.9716C30 8.75155 28.621 8.04188 27.6282 8.75101L23 12.0569V8.00003C23 6.89546 22.1046 6.00003 21 6.00003H4Z" fill="black"/>
</svg>

<svg viewBox="0 0 32 32" xmlns="http://www.w3.org/2000/svg"><path fill-rule="evenodd" d="M4 6a2 2 0 00-2 2v16a2 2 0 002 2h17a2 2 0 002-2v-4.057l3.838 2.741c.438.313.932.419 1.397.361l.432.288v-.39A1.986 1.986 0 0030 21.057V9.972c0-1.22-1.379-1.93-2.372-1.221L23 12.057V8a2 2 0 00-2-2H4z"/></svg>
